source/img/video-button.svg

<svg width="109" height="85" viewBox="0 0 109 85" fill="none" xmlns="http://www.w3.org/2000/svg">
<g filter="url(#filter0_d)">
<path d="M101 18.1C101 18.1 100.1 11.1 97.2001 7.99997C93.6001 3.99997 89.5001 3.89995 87.7001 3.69995C74.4001 2.69995 54.4001 2.69995 54.4001 2.69995H54.3001C54.3001 2.69995 34.3001 2.69995 21.0001 3.69995C19.1001 3.89995 15.1001 3.99997 11.5001 7.99997C8.70011 11.1 7.7001 18.1 7.7001 18.1C7.7001 18.1 6.80011 26.3 6.80011 34.5V42.2C6.80011 50.4 7.7001 58.6 7.7001 58.6C7.7001 58.6 8.60011 65.6 11.5001 68.7C15.1001 72.7 19.9001 72.6 22.0001 73C29.6001 73.8 54.4001 74 54.4001 74C54.4001 74 74.4001 74 87.7001 73C89.6001 72.8 93.6001 72.7 97.2001 68.7C100 65.6 101 58.6 101 58.6C101 58.6 101.9 50.4 101.9 42.2V34.5C101.9 26.3 101 18.1 101 18.1Z" fill="#63D1BB"/>
<path d="M54.3001 76.8C53.3001 76.8 29.3001 76.5 21.7001 75.8H21.6001H21.5001C21.2001 75.7 20.8001 75.7 20.4001 75.6C17.9001 75.3 13.2001 74.7 9.6001 70.6C6.2001 67 5.2001 59.8 5.1001 59C5.1001 58.7 4.1001 50.5 4.1001 42.3V34.6C4.1001 26.3 5.00011 18.2 5.00011 17.9V17.8C5.10011 17 6.20011 9.89998 9.50011 6.19998C13.5001 1.79998 18.0001 1.30001 20.2001 1.10001C20.4001 1.10001 20.6001 1.1 20.7001 1H20.8001C34.1001 0 54.1001 0 54.3001 0H54.4001C54.6001 0 74.6001 0 87.9001 1H88.0001C88.2001 1 88.3001 1.00001 88.5001 1.10001C90.7001 1.30001 95.2001 1.79998 99.2001 6.19998C102.6 9.79998 103.6 17 103.7 17.8C103.7 18.1 104.7 26.3 104.7 34.6V42.3C104.7 50.6 103.8 58.7 103.7 59V59.1C103.6 59.9 102.5 67.1 99.2001 70.7C95.2001 75.1 90.7001 75.6 88.5001 75.8C88.3001 75.8 88.1001 75.8 88.0001 75.9H87.9001C74.6001 76.8 54.5001 76.8 54.3001 76.8ZM22.4001 70.4C29.9001 71.1 53.6001 71.4 54.4001 71.4C55.1001 71.4 74.5001 71.4 87.4001 70.4C87.6001 70.4 87.8001 70.4 88.0001 70.3C89.8001 70.1 92.6001 69.8 95.2001 67C97.0001 65 98.1001 60.1 98.3001 58.4C98.4001 57.9 99.2001 50 99.2001 42.3V34.6C99.2001 26.8 98.3001 19 98.2001 18.5C97.9001 16.1 96.8001 11.7 95.1001 10C92.5001 7.1 89.7001 6.89998 87.9001 6.69998C87.7001 6.69998 87.5001 6.70001 87.3001 6.60001C74.2001 5.60001 54.5001 5.60001 54.3001 5.60001H54.2001C54.0001 5.60001 34.2001 5.60001 21.2001 6.60001C21.0001 6.60001 20.8001 6.59998 20.6001 6.69998C18.8001 6.89998 16.0001 7.2 13.4001 10C11.6001 12 10.5001 16.9 10.3001 18.6C10.2001 19.2 9.4001 27 9.4001 34.7V42.4C9.4001 50.1 10.3001 58 10.3001 58.5C10.6001 60.9 11.7001 65.3 13.4001 67C15.7001 69.6 18.7001 70 20.9001 70.3C21.5001 70.2 21.9001 70.3 22.4001 70.4Z" fill="white"/>
<path d="M42.4004 20.5V56.2L72.2004 38.4L42.4004 20.5Z" fill="white"/>
</g>
<defs>
<filter id="filter0_d" x="0.100098" y="0" width="108.6" height="84.8" filterUnits="userSpaceOnUse" color-interpolation-filters="sRGB">
<feFlood flood-opacity="0" result="BackgroundImageFix"/>
<feColorMatrix in="SourceAlpha" type="matrix" values="0 0 0 0 0 0 0 0 0 0 0 0 0 0 0 0 0 0 127 0"/>
<feOffset dy="4"/>
<feGaussianBlur stdDeviation="2"/>
<feColorMatrix type="matrix" values="0 0 0 0 0 0 0 0 0 0 0 0 0 0 0 0 0 0 0.25 0"/>
<feBlend mode="normal" in2="BackgroundImageFix" result="effect1_dropShadow"/>
<feBlend mode="normal" in="SourceGraphic" in2="effect1_dropShadow" result="shape"/>
</filter>
</defs>
</svg>

<svg width="109" height="85" fill="none" xmlns="http://www.w3.org/2000/svg"><g filter="url(#filter0_d)"><path d="M101 18.1s-.9-7-3.8-10.1c-3.6-4-7.7-4.1-9.5-4.3-13.3-1-33.3-1-33.3-1h-.1s-20 0-33.3 1c-1.9.2-5.9.3-9.5 4.3-2.8 3.1-3.8 10.1-3.8 10.1s-.9 8.2-.9 16.4v7.7c0 8.2.9 16.4.9 16.4s.9 7 3.8 10.1c3.6 4 8.4 3.9 10.5 4.3 7.6.8 32.4 1 32.4 1s20 0 33.3-1c1.9-.2 5.9-.3 9.5-4.3 2.8-3.1 3.8-10.1 3.8-10.1s.9-8.2.9-16.4v-7.7c0-8.2-.9-16.4-.9-16.4z" fill="#63D1BB"/><path d="M54.3 76.8c-1 0-25-.3-32.6-1h-.2c-.3-.1-.7-.1-1.1-.2-2.5-.3-7.2-.9-10.8-5C6.2 67 5.2 59.8 5.1 59c0-.3-1-8.5-1-16.7v-7.7c0-8.3.9-16.4.9-16.7v-.1c.1-.8 1.2-7.9 4.5-11.6 4-4.4 8.5-4.9 10.7-5.1.2 0 .4 0 .5-.1h.1c13.3-1 33.3-1 33.5-1h.1c.2 0 20.2 0 33.5 1h.1c.2 0 .3 0 .5.1 2.2.2 6.7.7 10.7 5.1 3.4 3.6 4.4 10.8 4.5 11.6 0 .3 1 8.5 1 16.8v7.7c0 8.3-.9 16.4-1 16.7v.1c-.1.8-1.2 8-4.5 11.6-4 4.4-8.5 4.9-10.7 5.1-.2 0-.4 0-.5.1h-.1c-13.3.9-33.4.9-33.6.9zm-31.9-6.4c7.5.7 31.2 1 32 1 .7 0 20.1 0 33-1 .2 0 .4 0 .6-.1 1.8-.2 4.6-.5 7.2-3.3 1.8-2 2.9-6.9 3.1-8.6.1-.5.9-8.4.9-16.1v-7.7c0-7.8-.9-15.6-1-16.1-.3-2.4-1.4-6.8-3.1-8.5-2.6-2.9-5.4-3.1-7.2-3.3-.2 0-.4 0-.6-.1-13.1-1-32.8-1-33-1h-.1c-.2 0-20 0-33 1-.2 0-.4 0-.6.1-1.8.2-4.6.5-7.2 3.3-1.8 2-2.9 6.9-3.1 8.6-.1.6-.9 8.4-.9 16.1v7.7c0 7.7.9 15.6.9 16.1.3 2.4 1.4 6.8 3.1 8.5 2.3 2.6 5.3 3 7.5 3.3.6-.1 1 0 1.5.1z" fill="#fff"/><path d="M42.4 20.5v35.7l29.8-17.8-29.8-17.9z" fill="#fff"/></g><defs><filter id="filter0_d" x=".1" y="0" width="108.6" height="84.8" filterUnits="userSpaceOnUse" color-interpolation-filters="sRGB"><feFlood flood-opacity="0" result="BackgroundImageFix"/><feColorMatrix in="SourceAlpha" values="0 0 0 0 0 0 0 0 0 0 0 0 0 0 0 0 0 0 127 0"/><feOffset dy="4"/><feGaussianBlur stdDeviation="2"/><feColorMatrix values="0 0 0 0 0 0 0 0 0 0 0 0 0 0 0 0 0 0 0.25 0"/><feBlend in2="BackgroundImageFix" result="effect1_dropShadow"/><feBlend in="SourceGraphic" in2="effect1_dropShadow" result="shape"/></filter></defs></svg>
